X:22
T:Some Say the Devil's Dead
C:trad.
M:4/4
I:speed 250
K:G
|:D2DE GABA | GEED GEE2 | D2DE GABc | dedB A2G2 :|
|:B2BA Bcd2 | e2ed efg2 | B2BA BcdB |GABG (3ABA G2 :|
